X:677
T:Tengo de subir al puertu (MQ 039)
R:Tonada
C:Tradicional
S:Msica Tradicional Asturiana, (C) Tello & Tito. Asturies, 2001.
S:http://pagina.de/MusTradAst <telloytito@asturies.org>
N:Cancin tradicional que incluyen prcticamente todos los cantantes de tonada en su repertorio.
A:Asturies
Z:Manolo Quirs 039
M:3/4
L:1/8
Q:1/4=50
K:Cm
|: C3 D E/F/G/A/|G4 F/G/4F/4E/F/|G6 :|
|c2 G2-G (3G/A/G/|FB B3 A|G{A}G/F/ =E4-|
=E2 C2 D2|E4 D/C/=B,/C/|D2-D3/2E/4D/4 C2|
|: G2 GG AF|G2 GG AF|G2 G4-|G6|
G2 GG AF|G2 GG AF|G2 G2 ED|C2 D/E/F ED|G>E C2 (3D/E/D/ C/=B,/|C6|
